flaticon/weather/moon.svg

<svg xmlns="http://www.w3.org/2000/svg" width="32" height="32" viewBox="0 0 24 24">
    <path d="M15.601562 3.601562C14.3125 3.601562 13.09375 3.902344 12 4.421875 11.796875 4.324219 11.589844 4.234375 11.378906 4.152344 11.410156 4.050781 11.40625 3.933594 11.347656 3.832031L10.746094 2.792969C10.636719 2.601562 10.390625 2.535156 10.199219 2.648438 10.007812 2.757812 9.941406 3.003906 10.054688 3.191406L10.433594 3.851562C9.773438 3.6875 9.09375 3.601562 8.398438 3.601562 4.90625 3.601562 1.910156 5.742188.644531 8.78125L.640625 8.78125.53125 9.085938C.523438 9.101562.519531 9.121094.511719 9.140625.4375 9.339844.371094 9.546875.3125 9.757812.300781 9.804688.289062 9.851562.277344 9.902344.226562 10.089844.183594 10.277344.148438 10.472656.128906 10.574219.113281 10.675781.0976562 10.78125.078125 10.925781.0546875 11.066406.0390625 11.214844.015625 11.476562 0 11.738281 0 12 0 12.28125.015625 12.566406.0429688 12.847656.0625 13.03125.09375 13.210938.125 13.390625.140625 13.484375.148438 13.582031.167969 13.675781L.167969 13.683594C.675781 16.171875 2.289062 18.261719 4.472656 19.417969L4.644531 19.507812C4.714844 19.542969 4.785156 19.574219 4.855469 19.605469 5.027344 19.683594 5.195312 19.757812 5.371094 19.828125 5.472656 19.867188 5.574219 19.902344 5.675781 19.9375 5.816406 19.988281 5.960938 20.03125 6.105469 20.074219 6.246094 20.113281 6.390625 20.152344 6.53125 20.183594 6.632812 20.207031 6.734375 20.230469 6.835938 20.25 7.023438 20.285156 7.210938 20.3125 7.402344 20.335938 7.503906 20.347656 7.605469 20.355469 7.707031 20.363281 7.898438 20.378906 8.09375 20.390625 8.285156 20.394531L8.292969 20.394531C8.328125 20.394531 8.363281 20.398438 8.398438 20.398438 8.429688 20.398438 8.460938 20.398438 8.492188 20.398438L8.574219 20.398438 8.574219 20.394531C9.207031 20.382812 9.828125 20.300781 10.433594 20.144531L10.054688 20.804688C9.941406 20.996094 10.007812 21.242188 10.199219 21.351562 10.261719 21.390625 10.332031 21.40625 10.398438 21.40625 10.539062 21.40625 10.671875 21.335938 10.746094 21.207031L11.347656 20.167969C11.40625 20.066406 11.410156 19.949219 11.378906 19.847656 11.585938 19.765625 11.796875 19.675781 12 19.578125 13.09375 20.097656 14.3125 20.398438 15.601562 20.398438 20.230469 20.398438 24 16.632812 24 12 24 7.367188 20.230469 3.601562 15.601562 3.601562zM1 10.296875C1.007812 10.257812 1.019531 10.21875 1.03125 10.175781 1.070312 10.015625 1.113281 9.855469 1.164062 9.695312 1.886719 9.933594 2.398438 10.617188 2.398438 11.398438 2.398438 12.292969 1.746094 13.035156.902344 13.175781.886719 13.089844.871094 13.007812.859375 12.921875.851562 12.84375.84375 12.769531.835938 12.695312.8125 12.464844.800781 12.234375.800781 12 .800781 11.773438.8125 11.546875.835938 11.324219.84375 11.222656.855469 11.125.871094 11.027344.882812 10.917969.902344 10.804688.921875 10.695312.945312 10.5625.96875 10.429688 1 10.296875zM1.0625 13.957031C2.277344 13.734375 3.199219 12.675781 3.199219 11.398438 3.199219 10.28125 2.472656 9.300781 1.445312 8.945312 2.625 6.273438 5.296875 4.398438 8.398438 4.398438 9.335938 4.398438 10.246094 4.570312 11.113281 4.90625 11.085938 4.921875 11.0625 4.941406 11.035156 4.957031 10.953125 5.011719 10.871094 5.066406 10.789062 5.125 10.617188 5.246094 10.449219 5.371094 10.285156 5.5 10.277344 5.507812 10.265625 5.515625 10.253906 5.523438 10.054688 5.6875 9.867188 5.863281 9.6875 6.042969 9.671875 6.054688 9.65625 6.070312 9.644531 6.085938 9.617188 6.113281 9.589844 6.136719 9.5625 6.164062 9.585938 6.113281 9.601562 6.058594 9.601562 6 9.601562 5.777344 9.421875 5.601562 9.199219 5.601562 8.980469 5.601562 8.800781 5.777344 8.800781 6 8.800781 6.222656 8.980469 6.398438 9.199219 6.398438 9.273438 6.398438 9.335938 6.375 9.394531 6.339844 8.914062 6.867188 8.503906 7.453125 8.171875 8.082031 8.070312 8.15625 8 8.265625 8 8.398438 8 8.402344 8.003906 8.40625 8.003906 8.410156 7.929688 8.558594 7.867188 8.710938 7.804688 8.863281 7.742188 8.828125 7.675781 8.800781 7.601562 8.800781 7.378906 8.800781 7.199219 8.980469 7.199219 9.199219 7.199219 9.40625 7.355469 9.566406 7.554688 9.589844 7.488281 9.8125 7.429688 10.039062 7.382812 10.269531 7.378906 10.289062 7.371094 10.308594 7.367188 10.328125 7.355469 10.386719 7.347656 10.445312 7.335938 10.503906 7.253906 10.578125 7.199219 10.679688 7.199219 10.800781 7.199219 10.875 7.226562 10.941406 7.261719 11 7.257812 11.023438 7.257812 11.050781 7.253906 11.074219 7.25 11.125 7.242188 11.175781 7.238281 11.230469 7.214844 11.484375 7.199219 11.742188 7.199219 12 7.199219 12.117188 7.207031 12.230469 7.210938 12.34375 7.207031 12.363281 7.199219 12.378906 7.199219 12.398438 7.199219 12.425781 7.210938 12.449219 7.214844 12.476562 7.222656 12.574219 7.230469 12.671875 7.238281 12.769531 7.242188 12.824219 7.25 12.875 7.253906 12.925781 7.28125 13.175781 7.320312 13.425781 7.367188 13.671875 7.367188 13.675781 7.371094 13.679688 7.371094 13.683594 7.269531 13.753906 7.199219 13.867188 7.199219 14 7.199219 14.203125 7.351562 14.363281 7.546875 14.390625 7.554688 14.417969 7.5625 14.441406 7.570312 14.46875 7.574219 14.480469 7.578125 14.496094 7.582031 14.507812 7.667969 14.78125 7.769531 15.054688 7.882812 15.316406 7.8125 15.246094 7.710938 15.199219 7.601562 15.199219 7.378906 15.199219 7.199219 15.378906 7.199219 15.601562 7.199219 15.820312 7.378906 16 7.601562 16 7.820312 16 8 15.820312 8 15.601562 8 15.589844 7.996094 15.582031 7.996094 15.574219 8.070312 15.730469 8.148438 15.886719 8.230469 16.039062 8.097656 16.101562 8 16.238281 8 16.398438 8 16.621094 8.179688 16.800781 8.398438 16.800781 8.492188 16.800781 8.578125 16.761719 8.644531 16.707031 8.714844 16.808594 8.78125 16.910156 8.855469 17.007812 8.824219 17.066406 8.800781 17.128906 8.800781 17.199219 8.800781 17.421875 8.980469 17.601562 9.199219 17.601562 9.242188 17.601562 9.28125 17.589844 9.324219 17.574219 9.417969 17.683594 9.519531 17.789062 9.621094 17.894531 9.613281 17.929688 9.601562 17.960938 9.601562 18 9.601562 18.222656 9.777344 18.398438 10 18.398438 10.046875 18.398438 10.09375 18.386719 10.136719 18.371094 10.175781 18.40625 10.214844 18.441406 10.253906 18.476562 10.265625 18.484375 10.277344 18.492188 10.285156 18.5 10.339844 18.542969 10.394531 18.582031 10.445312 18.621094 10.417969 18.675781 10.398438 18.734375 10.398438 18.800781 10.398438 19.019531 10.578125 19.199219 10.800781 19.199219 10.148438 19.421875 9.472656 19.546875 8.78125 19.582031 8.789062 19.523438 8.800781 19.460938 8.800781 19.398438 8.800781 19.027344 8.707031 18.679688 8.542969 18.371094 8.691406 18.3125 8.800781 18.171875 8.800781 18 8.800781 17.777344 8.621094 17.601562 8.398438 17.601562 8.265625 17.601562 8.152344 17.671875 8.078125 17.773438 7.988281 17.691406 7.890625 17.617188 7.785156 17.550781 7.910156 17.480469 8 17.351562 8 17.199219 8 16.980469 7.820312 16.800781 7.601562 16.800781 7.378906 16.800781 7.199219 16.980469 7.199219 17.199219 7.199219 17.230469 7.210938 17.261719 7.21875 17.289062 7.023438 17.230469 6.816406 17.199219 6.601562 17.199219 5.703125 17.199219 4.917969 17.757812 4.582031 18.5625 2.871094 17.5625 1.585938 15.914062 1.0625 13.957031zM11.019531 19.125C11.042969 19.109375 11.066406 19.097656 11.085938 19.078125 11.097656 19.082031 11.105469 19.089844 11.113281 19.09375 11.082031 19.105469 11.050781 19.113281 11.019531 19.125zM7.882812 19.574219C7.71875 19.5625 7.550781 19.546875 7.386719 19.523438 7.3125 19.515625 7.238281 19.503906 7.167969 19.492188 7 19.464844 6.835938 19.433594 6.671875 19.394531 6.613281 19.378906 6.550781 19.363281 6.492188 19.347656 6.316406 19.300781 6.140625 19.253906 5.96875 19.195312 5.9375 19.183594 5.902344 19.167969 5.867188 19.15625 5.671875 19.089844 5.480469 19.015625 5.292969 18.929688 5.289062 18.929688 5.289062 18.925781 5.289062 18.925781 5.484375 18.382812 6.007812 18 6.601562 18 7.371094 18 8 18.628906 8 19.398438 8 19.457031 7.996094 19.519531 7.984375 19.578125 7.953125 19.578125 7.917969 19.574219 7.882812 19.574219zM15.601562 19.601562C14.355469 19.601562 13.183594 19.292969 12.148438 18.761719 12.027344 18.699219 11.90625 18.632812 11.789062 18.566406 11.714844 18.523438 11.644531 18.476562 11.574219 18.433594 11.472656 18.371094 11.375 18.3125 11.28125 18.246094 11.117188 18.132812 10.960938 18.015625 10.804688 17.890625 10.765625 17.859375 10.726562 17.824219 10.6875 17.789062 10.546875 17.667969 10.40625 17.542969 10.273438 17.414062 10.25 17.386719 10.222656 17.363281 10.199219 17.339844 9.523438 16.65625 8.976562 15.851562 8.597656 14.957031 8.507812 14.742188 8.429688 14.527344 8.359375 14.304688 8.351562 14.277344 8.34375 14.253906 8.335938 14.226562 8.265625 14 8.207031 13.773438 8.15625 13.539062 8.15625 13.523438 8.152344 13.507812 8.148438 13.496094 8.109375 13.289062 8.078125 13.078125 8.054688 12.867188 8.046875 12.808594 8.039062 12.753906 8.035156 12.695312 8.015625 12.464844 8 12.234375 8 12 8 11.765625 8.015625 11.535156 8.035156 11.304688 8.039062 11.246094 8.046875 11.191406 8.054688 11.132812 8.078125 10.921875 8.109375 10.710938 8.148438 10.503906 8.152344 10.492188 8.15625 10.476562 8.15625 10.460938 8.207031 10.226562 8.265625 10 8.335938 9.773438 8.34375 9.746094 8.351562 9.722656 8.359375 9.695312 8.429688 9.472656 8.507812 9.257812 8.597656 9.042969 8.976562 8.148438 9.523438 7.34375 10.199219 6.664062 10.222656 6.636719 10.25 6.613281 10.273438 6.585938 10.40625 6.457031 10.546875 6.332031 10.6875 6.210938 10.726562 6.175781 10.765625 6.140625 10.804688 6.109375 10.960938 5.984375 11.117188 5.867188 11.28125 5.753906 11.375 5.6875 11.472656 5.628906 11.574219 5.566406 11.644531 5.523438 11.714844 5.476562 11.789062 5.433594 11.90625 5.367188 12.027344 5.300781 12.148438 5.238281 13.183594 4.707031 14.355469 4.398438 15.601562 4.398438 19.789062 4.398438 23.199219 7.808594 23.199219 12 23.199219 16.191406 19.789062 19.601562 15.601562 19.601562zM15.601562 20.800781C15.378906 20.800781 15.199219 20.980469 15.199219 21.199219L15.199219 22.398438C15.199219 22.621094 15.378906 22.800781 15.601562 22.800781 15.820312 22.800781 16 22.621094 16 22.398438L16 21.199219C16 20.980469 15.820312 20.800781 15.601562 20.800781zM15.601562 3.199219C15.820312 3.199219 16 3.019531 16 2.800781L16 1.601562C16 1.378906 15.820312 1.199219 15.601562 1.199219 15.378906 1.199219 15.199219 1.378906 15.199219 1.601562L15.199219 2.800781C15.199219 3.019531 15.378906 3.199219 15.601562 3.199219zM15.601562 3.199219"/>
    <path d="M22.105469 5.894531C22.207031 5.894531 22.308594 5.855469 22.386719 5.777344L23.238281 4.929688C23.394531 4.773438 23.394531 4.519531 23.238281 4.363281 23.082031 4.207031 22.828125 4.207031 22.671875 4.363281L21.824219 5.210938C21.667969 5.367188 21.667969 5.621094 21.824219 5.777344 21.902344 5.855469 22.003906 5.894531 22.105469 5.894531zM13.324219 20.5C13.109375 20.441406 12.890625 20.570312 12.832031 20.78125L12.523438 21.941406C12.464844 22.15625 12.589844 22.375 12.804688 22.433594 12.839844 22.441406 12.875 22.445312 12.90625 22.445312 13.085938 22.445312 13.246094 22.328125 13.292969 22.148438L13.605469 20.988281C13.664062 20.777344 13.535156 20.558594 13.324219 20.5zM17.878906 3.5C17.910156 3.507812 17.945312 3.511719 17.980469 3.511719 18.15625 3.511719 18.320312 3.394531 18.367188 3.21875L18.679688 2.058594C18.734375 1.84375 18.609375 1.625 18.394531 1.566406 18.183594 1.511719 17.960938 1.636719 17.90625 1.851562L17.59375 3.011719C17.539062 3.222656 17.664062 3.441406 17.878906 3.5zM12.832031 3.21875C12.878906 3.394531 13.042969 3.511719 13.21875 3.511719 13.253906 3.511719 13.289062 3.507812 13.324219 3.5 13.535156 3.441406 13.664062 3.222656 13.605469 3.011719L13.292969 1.851562C13.238281 1.636719 13.019531 1.511719 12.804688 1.566406 12.589844 1.625 12.464844 1.84375 12.523438 2.058594zM18.367188 20.78125C18.308594 20.570312 18.089844 20.441406 17.878906 20.5 17.664062 20.558594 17.539062 20.777344 17.59375 20.988281L17.90625 22.148438C17.953125 22.328125 18.113281 22.445312 18.292969 22.445312 18.324219 22.445312 18.359375 22.441406 18.394531 22.433594 18.609375 22.375 18.734375 22.15625 18.675781 21.941406zM20.546875 19.769531C20.4375 19.574219 20.191406 19.511719 20 19.621094 19.808594 19.730469 19.742188 19.976562 19.855469 20.167969L20.453125 21.207031C20.527344 21.335938 20.660156 21.40625 20.800781 21.40625 20.867188 21.40625 20.9375 21.390625 21 21.351562 21.191406 21.242188 21.257812 20.996094 21.144531 20.808594zM20 4.378906C20.0625 4.414062 20.132812 4.433594 20.199219 4.433594 20.339844 4.433594 20.472656 4.359375 20.546875 4.230469L21.144531 3.191406C21.257812 3 21.191406 2.757812 21 2.648438 20.808594 2.535156 20.5625 2.601562 20.453125 2.792969L19.855469 3.832031C19.742188 4.023438 19.808594 4.269531 20 4.378906zM7.199219 8.398438C7.199219 8.621094 7.019531 8.800781 6.800781 8.800781 6.578125 8.800781 6.398438 8.621094 6.398438 8.398438 6.398438 8.179688 6.578125 8 6.800781 8 7.019531 8 7.199219 8.179688 7.199219 8.398438zM8 7.601562C8 7.820312 7.820312 8 7.601562 8 7.378906 8 7.199219 7.820312 7.199219 7.601562 7.199219 7.378906 7.378906 7.199219 7.601562 7.199219 7.820312 7.199219 8 7.378906 8 7.601562zM8.800781 6.800781C8.800781 7.019531 8.621094 7.199219 8.398438 7.199219 8.179688 7.199219 8 7.019531 8 6.800781 8 6.578125 8.179688 6.398438 8.398438 6.398438 8.621094 6.398438 8.800781 6.578125 8.800781 6.800781zM5.601562 7.199219C5.601562 7.421875 5.421875 7.601562 5.199219 7.601562 4.980469 7.601562 4.800781 7.421875 4.800781 7.199219 4.800781 6.980469 4.980469 6.800781 5.199219 6.800781 5.421875 6.800781 5.601562 6.980469 5.601562 7.199219zM5.199219 14C5.199219 14.222656 5.019531 14.398438 4.800781 14.398438 4.578125 14.398438 4.398438 14.222656 4.398438 14 4.398438 13.777344 4.578125 13.601562 4.800781 13.601562 5.019531 13.601562 5.199219 13.777344 5.199219 14zM10.398438 5.199219C10.398438 5.421875 10.222656 5.601562 10 5.601562 9.777344 5.601562 9.601562 5.421875 9.601562 5.199219 9.601562 4.980469 9.777344 4.800781 10 4.800781 10.222656 4.800781 10.398438 4.980469 10.398438 5.199219zM8.800781 5.199219C8.800781 5.421875 8.621094 5.601562 8.398438 5.601562 8.179688 5.601562 8 5.421875 8 5.199219 8 4.980469 8.179688 4.800781 8.398438 4.800781 8.621094 4.800781 8.800781 4.980469 8.800781 5.199219zM8 6C8 6.222656 7.820312 6.398438 7.601562 6.398438 7.378906 6.398438 7.199219 6.222656 7.199219 6 7.199219 5.777344 7.378906 5.601562 7.601562 5.601562 7.820312 5.601562 8 5.777344 8 6zM6.398438 10.800781C6.398438 11.019531 6.222656 11.199219 6 11.199219 5.777344 11.199219 5.601562 11.019531 5.601562 10.800781 5.601562 10.578125 5.777344 10.398438 6 10.398438 6.222656 10.398438 6.398438 10.578125 6.398438 10.800781zM7.199219 10C7.199219 10.222656 7.019531 10.398438 6.800781 10.398438 6.578125 10.398438 6.398438 10.222656 6.398438 10 6.398438 9.777344 6.578125 9.601562 6.800781 9.601562 7.019531 9.601562 7.199219 9.777344 7.199219 10zM7.199219 11.601562C7.199219 11.820312 7.019531 12 6.800781 12 6.578125 12 6.398438 11.820312 6.398438 11.601562 6.398438 11.378906 6.578125 11.199219 6.800781 11.199219 7.019531 11.199219 7.199219 11.378906 7.199219 11.601562zM6.398438 12.398438C6.398438 12.621094 6.222656 12.800781 6 12.800781 5.777344 12.800781 5.601562 12.621094 5.601562 12.398438 5.601562 12.179688 5.777344 12 6 12 6.222656 12 6.398438 12.179688 6.398438 12.398438zM7.199219 13.199219C7.199219 13.421875 7.019531 13.601562 6.800781 13.601562 6.578125 13.601562 6.398438 13.421875 6.398438 13.199219 6.398438 12.980469 6.578125 12.800781 6.800781 12.800781 7.019531 12.800781 7.199219 12.980469 7.199219 13.199219zM7.199219 14.800781C7.199219 15.019531 7.019531 15.199219 6.800781 15.199219 6.578125 15.199219 6.398438 15.019531 6.398438 14.800781 6.398438 14.578125 6.578125 14.398438 6.800781 14.398438 7.019531 14.398438 7.199219 14.578125 7.199219 14.800781zM7.199219 16.398438C7.199219 16.621094 7.019531 16.800781 6.800781 16.800781 6.578125 16.800781 6.398438 16.621094 6.398438 16.398438 6.398438 16.179688 6.578125 16 6.800781 16 7.019531 16 7.199219 16.179688 7.199219 16.398438zM9.601562 18.800781C9.601562 19.019531 9.421875 19.199219 9.199219 19.199219 8.980469 19.199219 8.800781 19.019531 8.800781 18.800781 8.800781 18.578125 8.980469 18.398438 9.199219 18.398438 9.421875 18.398438 9.601562 18.578125 9.601562 18.800781zM9.601562 18.800781"/>
</svg>

<svg xmlns="http://www.w3.org/2000/svg" width="32" height="32" viewBox="0 0 24 24">
    <path d="M15.602 3.602c-1.29 0-2.508.3-3.602.82a8.763 8.763 0 0 0-.621-.27.403.403 0 0 0-.031-.32l-.602-1.039a.397.397 0 0 0-.547-.145.394.394 0 0 0-.144.543l.379.66a8.417 8.417 0 0 0-2.036-.25c-3.492 0-6.488 2.141-7.753 5.18H.64l-.11.305c-.008.016-.011.035-.02.055-.074.199-.14.406-.199.617l-.035.144a6.72 6.72 0 0 0-.18.88c-.019.144-.042.284-.058.433C.016 11.477 0 11.738 0 12c0 .281.016.566.043.848.02.183.05.363.082.543.016.093.023.191.043.285v.008a8.41 8.41 0 0 0 4.305 5.734l.172.09a12.059 12.059 0 0 0 .727.32c.1.04.202.074.304.11a8.515 8.515 0 0 0 .855.246c.102.023.203.046.305.066.187.035.375.063.566.086.102.012.203.02.305.027.191.016.387.028.578.032h.008l.105.003h.176v-.003a8.015 8.015 0 0 0 1.86-.25l-.38.66a.397.397 0 0 0 .145.547c.063.039.133.054.2.054.14 0 .273-.07.347-.199l.602-1.039a.403.403 0 0 0 .03-.32 9.62 9.62 0 0 0 .622-.27c1.094.52 2.313.82 3.602.82C20.23 20.398 24 16.633 24 12c0-4.633-3.77-8.398-8.398-8.398zM1 10.297c.008-.04.02-.078.031-.121.04-.16.082-.32.133-.48a1.801 1.801 0 0 1 1.234 1.702c0 .895-.652 1.637-1.496 1.778-.015-.086-.03-.168-.043-.254l-.023-.227a6.849 6.849 0 0 1 .035-1.668c.012-.109.031-.222.05-.332.024-.133.048-.265.079-.398zm.063 3.66a2.604 2.604 0 0 0 2.136-2.559 2.61 2.61 0 0 0-1.754-2.453c1.18-2.672 3.852-4.547 6.953-4.547.938 0 1.848.172 2.715.508-.027.016-.05.035-.078.051-.082.055-.164.11-.246.168-.172.121-.34.246-.504.375a7.971 7.971 0 0 0-.64.586c-.028.027-.055.05-.082.078A.39.39 0 0 0 9.601 6a.398.398 0 0 0-.403-.398.398.398 0 1 0 0 .796.37.37 0 0 0 .196-.058 8.43 8.43 0 0 0-1.223 1.742.39.39 0 0 0-.172.316c0 .004.004.008.004.012-.074.149-.137.3-.2.453a.413.413 0 0 0-.202-.062.401.401 0 0 0-.403.398c0 .207.156.367.356.39-.067.223-.125.45-.172.68-.004.02-.012.04-.016.06-.012.058-.02.116-.031.175a.396.396 0 0 0-.137.297c0 .074.028.14.063.199-.004.023-.004.05-.008.074-.004.051-.012.102-.016.156-.023.254-.039.512-.039.77 0 .117.008.23.012.344-.004.02-.012.035-.012.054 0 .028.012.051.016.079l.023.293c.004.054.012.105.016.156.027.25.066.5.113.746 0 .004.004.008.004.012A.385.385 0 0 0 7.2 14c0 .203.153.363.348.39.008.028.016.051.023.079l.012.039c.086.273.188.547.3.808a.402.402 0 0 0-.684.285.401.401 0 0 0 .802 0c0-.011-.004-.019-.004-.027.074.156.152.313.234.465a.4.4 0 0 0 .168.762c.094 0 .18-.04.247-.094.07.102.136.203.21.3a.403.403 0 0 0-.054.192c0 .223.18.403.398.403a.36.36 0 0 0 .125-.028c.094.11.196.215.297.32-.008.036-.02.067-.02.106a.395.395 0 0 0 .536.371l.117.106a.217.217 0 0 1 .031.023c.055.043.11.082.16.121a.396.396 0 0 0-.047.18c0 .219.18.398.403.398a7.39 7.39 0 0 1-2.02.383c.008-.059.02-.121.02-.184 0-.37-.094-.718-.258-1.027A.4.4 0 0 0 8.801 18a.398.398 0 0 0-.403-.398.398.398 0 0 0-.32.171 2.066 2.066 0 0 0-.293-.222c.125-.07.215-.2.215-.352a.4.4 0 0 0-.8 0c0 .031.01.063.019.09a2.144 2.144 0 0 0-.617-.09 2.2 2.2 0 0 0-2.02 1.363 7.631 7.631 0 0 1-3.52-4.605zm9.957 5.168c.023-.016.046-.027.066-.047.012.004.02.012.027.016l-.093.031zm-3.137.45a7.113 7.113 0 0 1-.715-.083 6.957 6.957 0 0 1-.496-.097l-.18-.047a8.028 8.028 0 0 1-.523-.153c-.032-.011-.067-.027-.102-.039a6.042 6.042 0 0 1-.574-.226c-.004 0-.004-.004-.004-.004A1.403 1.403 0 0 1 6.602 18C7.372 18 8 18.629 8 19.398a.931.931 0 0 1-.016.18c-.03 0-.066-.004-.101-.004zm7.719.027a7.541 7.541 0 0 1-3.813-1.036c-.074-.043-.144-.09-.215-.132-.101-.063-.199-.122-.293-.188a8.38 8.38 0 0 1-.476-.355 2.715 2.715 0 0 1-.117-.102 9.428 9.428 0 0 1-.415-.375c-.023-.027-.05-.05-.074-.074a7.615 7.615 0 0 1-1.601-2.383 7.65 7.65 0 0 1-.239-.652c-.007-.028-.015-.051-.023-.078a8.068 8.068 0 0 1-.188-.73 8.41 8.41 0 0 1-.093-.63c-.008-.058-.016-.113-.02-.172-.02-.23-.035-.46-.035-.695 0-.234.016-.465.035-.695.004-.059.012-.114.02-.172a8.41 8.41 0 0 1 .101-.672c.051-.234.11-.461.18-.688.008-.027.016-.05.023-.078a7.65 7.65 0 0 1 .239-.652c.379-.895.925-1.7 1.601-2.379.024-.027.051-.05.074-.078.133-.129.274-.254.415-.375.039-.035.078-.07.117-.102a8.38 8.38 0 0 1 .476-.355c.094-.066.192-.125.293-.188.07-.043.14-.09.215-.132a7.541 7.541 0 0 1 3.813-1.035c4.187 0 7.597 3.41 7.597 7.601s-3.41 7.602-7.597 7.602zm0 0M15.602 20.8a.401.401 0 0 0-.403.4v1.198a.401.401 0 0 0 .8 0l.001-1.199a.4.4 0 0 0-.398-.398zm0 0M15.602 3.2A.4.4 0 0 0 16 2.8V1.603a.401.401 0 1 0-.8 0V2.8c0 .219.179.398.402.398zm0 0"/>
    <path d="M22.105 5.895c.102 0 .204-.04.282-.118l.851-.847a.4.4 0 0 0-.566-.567l-.848.848a.4.4 0 0 0 .281.684zm0 0M13.324 20.5a.402.402 0 0 0-.492.281l-.309 1.16a.4.4 0 1 0 .77.207l.312-1.16a.4.4 0 0 0-.28-.488zm0 0M17.879 3.5a.4.4 0 0 0 .488-.281l.313-1.16a.4.4 0 0 0-.773-.207l-.313 1.16c-.055.21.07.43.285.488zm0 0M12.832 3.219a.4.4 0 0 0 .387.293c.035 0 .07-.004.105-.012a.4.4 0 0 0 .281-.488l-.312-1.16a.399.399 0 1 0-.77.207zm0 0M18.367 20.781a.4.4 0 0 0-.773.207l.312 1.16c.047.18.207.297.387.297a.4.4 0 0 0 .383-.504zm0 0M20.547 19.77a.398.398 0 1 0-.692.398l.598 1.039a.397.397 0 0 0 .547.145.394.394 0 0 0 .145-.543zm0 0M20 4.379a.4.4 0 0 0 .547-.148l.598-1.04A.393.393 0 0 0 21 2.648a.397.397 0 0 0-.547.145l-.598 1.039a.397.397 0 0 0 .145.547zm0 0M7.2 8.398a.401.401 0 1 1-.803.003.401.401 0 0 1 .802-.003zm0 0M8 7.602a.4.4 0 1 1-.8-.004.4.4 0 0 1 .8.004zm0 0M8.8 6.8A.401.401 0 1 1 8 6.797.401.401 0 0 1 8.8 6.8zm0 0M5.602 7.2a.401.401 0 1 1 0 0zm0 0M5.2 14c0 .223-.18.398-.4.398a.398.398 0 1 1 0-.796c.22 0 .4.175.4.398zm0 0M10.398 5.2a.398.398 0 1 1-.796 0 .398.398 0 1 1 .796 0zm0 0M8.8 5.2a.401.401 0 1 1 0 0zm0 0M8 6c0 .223-.18.398-.398.398a.398.398 0 1 1 0-.796C7.82 5.602 8 5.777 8 6zm0 0M6.398 10.8a.398.398 0 1 1-.796 0 .398.398 0 1 1 .796 0zm0 0M7.2 10c0 .223-.18.398-.4.398a.398.398 0 1 1 0-.796c.22 0 .4.175.4.398zm0 0M7.2 11.602a.4.4 0 1 1-.801-.004.4.4 0 0 1 .8.004zm0 0M6.398 12.398a.398.398 0 1 1-.796 0 .398.398 0 1 1 .796 0zm0 0M7.2 13.2a.401.401 0 1 1-.803.002.401.401 0 0 1 .802-.003zm0 0M7.2 14.8a.4.4 0 1 1-.801-.003.4.4 0 0 1 .8.004zm0 0M7.2 16.398a.401.401 0 1 1-.803.003.401.401 0 0 1 .802-.003zm0 0M9.602 18.8a.401.401 0 1 1-.802-.004.401.401 0 0 1 .802.005zm0 0"/>
</svg>
